picto/tracks-35-it-small-framed.svg

<svg class="color-immutable" width="30" height="30" viewBox="0 0 30 30" fill="none" xmlns="http://www.w3.org/2000/svg"><path d="M30 0H0V30H30V0Z" fill="#2D327D"/><path d="M25.5 3C26.325 3 27 3.675 27 4.5V25.5C27 26.325 26.325 27 25.5 27H4.5C3.675 27 3 26.325 3 25.5V4.5C3 3.675 3.675 3 4.5 3H25.5ZM25.5 2.625H4.5C3.46613 2.625 2.625 3.46613 2.625 4.5V25.5C2.625 26.5339 3.46613 27.375 4.5 27.375H25.5C26.5339 27.375 27.375 26.5339 27.375 25.5V4.5C27.375 3.46613 26.5339 2.625 25.5 2.625Z" fill="white"/><path d="M6.41363 16.3191C6.4392 15.3962 6.66743 14.6222 7.09808 13.9966C7.79528 12.9918 8.84378 12.4892 10.2434 12.4892C11.3201 12.4892 12.1891 12.7636 12.8505 13.3121C13.5631 13.907 13.9195 14.676 13.9195 15.6193C13.9195 16.1834 13.7798 16.669 13.5004 17.0767C13.2209 17.4842 12.8429 17.7599 12.366 17.9033C12.9709 18.0418 13.449 18.3494 13.8003 18.8262C14.1515 19.303 14.3271 19.8798 14.3271 20.5565C14.3271 21.6692 13.9169 22.5791 13.0967 23.2866C12.3378 23.9429 11.3791 24.271 10.2204 24.271C8.96423 24.271 7.9683 23.9096 7.2327 23.1866C6.49695 22.4637 6.12915 21.4871 6.12915 20.2566C6.12915 20.231 6.12915 20.1824 6.12915 20.1105H8.29013C8.29013 20.8027 8.45415 21.3371 8.78228 21.7139C9.11033 22.0908 9.57443 22.2792 10.1743 22.2792C10.7741 22.2792 11.2355 22.1024 11.5586 21.7486C11.8559 21.4154 12.0046 21.018 12.0046 20.5565C12.0046 20.0028 11.8148 19.5644 11.4355 19.2415C11.1227 18.9749 10.6407 18.8416 9.9897 18.8416C9.80513 18.8416 9.6231 18.8519 9.4437 18.8723V17.2189C9.57698 17.2292 9.70515 17.2343 9.82823 17.2343C11.1203 17.2343 11.7662 16.7549 11.7662 15.7961C11.7662 15.3758 11.6252 15.0361 11.3432 14.7772C11.0612 14.5184 10.6895 14.3888 10.2281 14.3888C9.69998 14.3888 9.29243 14.5529 9.00533 14.881C8.71815 15.2092 8.56433 15.6885 8.54393 16.3191H6.41363Z" fill="white"/><path d="M23.2588 12.7585V14.758H18.7291L18.2446 17.2881C18.788 16.714 19.4828 16.4268 20.3287 16.4268C21.1592 16.4268 21.8822 16.6499 22.4974 17.0959C23.4099 17.7676 23.8663 18.7878 23.8663 20.1567C23.8663 21.5 23.3792 22.5638 22.4051 23.3483C21.6463 23.9635 20.7388 24.2711 19.6827 24.2711C18.4932 24.2711 17.5371 23.952 16.8142 23.3136C16.0913 22.6753 15.7093 21.8128 15.6683 20.7258H17.8755C17.9114 21.1207 18.0395 21.4564 18.26 21.7333C18.6035 22.1692 19.0803 22.387 19.6904 22.387C20.2799 22.387 20.7465 22.1743 21.0901 21.7486C21.4232 21.3334 21.59 20.8284 21.59 20.2337C21.59 19.5877 21.4156 19.0712 21.067 18.684C20.7183 18.297 20.2543 18.1034 19.675 18.1034C18.9674 18.1034 18.4163 18.4214 18.0215 19.057L16.0143 19.0263L17.0833 12.7586H23.2588V12.7585Z" fill="white"/><path d="M6.00073 6H7.01278C7.23013 6 7.39221 6.02715 7.49878 6.08152C7.59928 6.13282 7.67518 6.20715 7.72641 6.30457C7.76946 6.38662 7.79098 6.47377 7.79098 6.56602C7.79098 6.66855 7.76481 6.75982 7.71253 6.83977C7.66026 6.91972 7.58436 6.9828 7.48491 7.02893C7.57101 7.05765 7.63566 7.08788 7.67871 7.11968C7.82428 7.22633 7.89711 7.38165 7.89711 7.58572C7.89711 7.7067 7.87018 7.81537 7.81633 7.91182C7.76248 8.00827 7.68531 8.0856 7.58488 8.1441C7.46593 8.21385 7.30543 8.24873 7.10346 8.24873H6.00073V6ZM6.49138 6.38603V6.9105H6.94048C7.04511 6.9105 7.12198 6.8982 7.17118 6.8736C7.26246 6.8295 7.30806 6.7536 7.30806 6.64597C7.30806 6.5547 7.27933 6.48855 7.22196 6.44753C7.16458 6.4065 7.07068 6.38603 6.94048 6.38603H6.49138ZM6.49138 7.24583V7.86263H6.98818C7.13068 7.86263 7.23066 7.8426 7.28811 7.80263C7.36401 7.74825 7.40196 7.66575 7.40196 7.55498C7.40196 7.42268 7.35066 7.33245 7.24813 7.2843C7.19173 7.25865 7.09686 7.24583 6.96358 7.24583H6.49138Z" fill="white"/><path d="M8.63707 6V6.40147H8.19104V6H8.63707ZM8.63707 6.57217V8.24873H8.19104V6.57217H8.63707Z" fill="white"/><path d="M9.41681 6.57368V6.80903C9.46908 6.73725 9.51783 6.68445 9.56291 6.65063C9.67368 6.56453 9.80696 6.5214 9.96281 6.5214C10.1002 6.5214 10.2166 6.55628 10.3119 6.62603C10.3878 6.68138 10.4409 6.75135 10.4712 6.83595C10.5015 6.92055 10.5165 7.03973 10.5165 7.19355V8.24865H10.072V7.28738C10.072 7.17968 10.0628 7.10078 10.0443 7.05053C10.0269 7.00643 9.99716 6.97155 9.95516 6.9459C9.90693 6.91823 9.85211 6.90435 9.79061 6.90435C9.72296 6.90435 9.66138 6.92077 9.60603 6.95355C9.55068 6.98632 9.50966 7.03095 9.48296 7.08735C9.45326 7.15095 9.43833 7.24988 9.43833 7.3842V8.24858H8.99231V6.57368H9.41681Z" fill="white"/><path d="M12.3792 8.24865H11.924C11.9045 8.18303 11.8947 8.12715 11.8947 8.08103C11.7553 8.22353 11.5753 8.29485 11.3549 8.29485C11.1826 8.29485 11.0483 8.25488 10.9519 8.17485C10.8411 8.0826 10.7858 7.9539 10.7858 7.78883C10.7858 7.5786 10.8806 7.43303 11.0703 7.35203C11.1472 7.31918 11.2887 7.28895 11.4948 7.26128C11.6722 7.23773 11.7827 7.21485 11.8262 7.1928C11.8698 7.17075 11.8916 7.12643 11.8916 7.05975C11.8916 6.91313 11.7942 6.83978 11.5994 6.83978C11.4959 6.83978 11.4203 6.85823 11.3726 6.89513C11.3249 6.93203 11.2934 6.99615 11.278 7.08735H10.8566C10.8699 6.90075 10.9401 6.75998 11.0673 6.66518C11.1944 6.5703 11.3754 6.5229 11.6102 6.5229C11.8697 6.5229 12.0614 6.5757 12.1855 6.6813C12.2429 6.7305 12.2811 6.7833 12.3001 6.8397C12.3191 6.8961 12.3285 6.98528 12.3285 7.1073C12.3285 7.13295 12.3269 7.24575 12.3239 7.4457C12.3218 7.64768 12.3208 7.76355 12.3208 7.79333C12.3208 7.91535 12.3244 8.00483 12.3316 8.06175C12.3388 8.11868 12.3546 8.181 12.3792 8.24865ZM11.8886 7.43813C11.8311 7.47405 11.7266 7.50218 11.5748 7.52273C11.4681 7.53915 11.3912 7.56015 11.3441 7.5858C11.2774 7.62173 11.2441 7.6827 11.2441 7.7688C11.2441 7.83855 11.2661 7.89285 11.3102 7.93185C11.3543 7.97085 11.4158 7.99028 11.4948 7.99028C11.6261 7.99028 11.7322 7.94415 11.8132 7.85183C11.8419 7.82003 11.8616 7.78695 11.8724 7.7526C11.8832 7.71825 11.8886 7.67288 11.8886 7.61648V7.43813Z" fill="white"/><path d="M13.7158 6.54142V6.97365C13.6441 6.9603 13.5862 6.95362 13.5421 6.95362C13.3759 6.95362 13.2539 7.02337 13.176 7.1628C13.1319 7.24072 13.1098 7.37092 13.1098 7.55347V8.24872H12.6638V6.5691H13.0883V6.87517C13.2093 6.64755 13.3852 6.5337 13.6159 6.5337C13.6445 6.5337 13.6779 6.53625 13.7158 6.54142Z" fill="white"/><path d="M14.3725 6V6.40147H13.9265V6H14.3725ZM14.3725 6.57217V8.24873H13.9265V6.57217H14.3725Z" fill="white"/><path d="M15.5338 6.5229C15.7778 6.5229 15.9773 6.6039 16.1321 6.7659C16.2849 6.92588 16.3613 7.13918 16.3613 7.40573C16.3613 7.68158 16.2798 7.90148 16.1168 8.06558C15.964 8.21835 15.7651 8.29478 15.52 8.29478C15.2585 8.29478 15.0503 8.20965 14.8955 8.03948C14.7479 7.87748 14.6741 7.66725 14.6741 7.40888C14.6741 7.15455 14.7458 6.94793 14.8894 6.789C15.0482 6.61163 15.263 6.5229 15.5338 6.5229ZM15.5107 6.87053C15.3928 6.87053 15.299 6.91823 15.2292 7.01355C15.1585 7.10993 15.1231 7.2417 15.1231 7.40888C15.1231 7.5822 15.158 7.71495 15.2277 7.80728C15.2995 7.90058 15.3974 7.94723 15.5215 7.94723C15.6374 7.94723 15.7292 7.9047 15.7968 7.81958C15.8737 7.72523 15.9122 7.58835 15.9122 7.40888C15.9122 7.24073 15.8783 7.11 15.8106 7.0167C15.7399 6.91928 15.6399 6.87053 15.5107 6.87053Z" fill="white"/></svg>

<svg class="color-immutable" width="30" height="30" viewBox="0 0 30 30" fill="none" xmlns="http://www.w3.org/2000/svg"><g clip-path="url(#a)"><path d="M30 0H0v30h30V0Z" fill="#2D327D"/><path d="M25.5 3c.825 0 1.5.675 1.5 1.5v21c0 .825-.675 1.5-1.5 1.5h-21c-.825 0-1.5-.675-1.5-1.5v-21C3 3.675 3.675 3 4.5 3h21Zm0-.375h-21A1.877 1.877 0 0 0 2.625 4.5v21c0 1.034.841 1.875 1.875 1.875h21a1.877 1.877 0 0 0 1.875-1.875v-21A1.877 1.877 0 0 0 25.5 2.625Z" fill="#fff"/><path d="M6.414 16.32c.025-.924.253-1.698.684-2.323.697-1.005 1.746-1.508 3.145-1.508 1.077 0 1.946.275 2.607.823.713.595 1.07 1.364 1.07 2.307 0 .564-.14 1.05-.42 1.458-.28.407-.657.683-1.134.826.605.139 1.083.446 1.434.923.351.477.527 1.054.527 1.73 0 1.113-.41 2.023-1.23 2.73-.76.657-1.718.985-2.877.985-1.256 0-2.252-.361-2.987-1.084-.736-.723-1.104-1.7-1.104-2.93v-.147H8.29c0 .693.164 1.227.492 1.604.328.377.792.565 1.392.565.6 0 1.062-.177 1.385-.53a1.73 1.73 0 0 0 .446-1.192c0-.554-.19-.993-.57-1.316-.312-.266-.794-.4-1.445-.4-.185 0-.367.01-.546.031V17.22c.133.01.261.015.384.015 1.292 0 1.938-.48 1.938-1.438 0-.42-.14-.76-.423-1.019-.282-.259-.653-.388-1.115-.388-.528 0-.936.164-1.223.492-.287.328-.44.807-.461 1.438h-2.13ZM23.259 12.758v2h-4.53l-.484 2.53c.543-.574 1.238-.861 2.084-.861.83 0 1.553.223 2.168.669.913.672 1.37 1.692 1.37 3.06 0 1.344-.488 2.408-1.462 3.192-.759.616-1.666.923-2.722.923-1.19 0-2.146-.319-2.869-.957-.723-.639-1.105-1.501-1.146-2.588h2.207c.036.395.165.73.385 1.007.343.436.82.654 1.43.654.59 0 1.056-.213 1.4-.638.333-.416.5-.92.5-1.515 0-.646-.174-1.163-.523-1.55-.349-.387-.813-.58-1.392-.58-.708 0-1.259.317-1.654.953l-2.007-.03 1.07-6.268h6.175ZM6 6h1.013c.217 0 .38.027.486.082.1.05.176.125.227.223.043.082.065.169.065.261a.489.489 0 0 1-.306.463c.086.029.15.059.194.09.145.107.218.263.218.467a.61.61 0 0 1-.312.558c-.12.07-.28.105-.482.105H6.001V6Zm.491.386v.524h.45a.542.542 0 0 0 .23-.036c.091-.044.137-.12.137-.228 0-.091-.029-.157-.086-.198-.057-.042-.151-.062-.282-.062h-.449Zm0 .86v.617h.497c.143 0 .243-.02.3-.06.076-.055.114-.137.114-.248 0-.132-.051-.223-.154-.27a.749.749 0 0 0-.284-.04H6.49ZM8.637 6v.401h-.446V6h.446Zm0 .572V8.25h-.446V6.572h.446ZM9.417 6.574v.235a.632.632 0 0 1 .546-.288c.137 0 .254.035.349.105a.439.439 0 0 1 .16.21c.03.085.045.204.045.358v1.055h-.445v-.962a.74.74 0 0 0-.028-.236.21.21 0 0 0-.089-.105.356.356 0 0 0-.35.008.304.304 0 0 0-.122.133.74.74 0 0 0-.045.297v.865h-.446V6.574h.425ZM12.38 8.249h-.456a.606.606 0 0 1-.03-.168.722.722 0 0 1-.54.214c-.171 0-.306-.04-.402-.12a.475.475 0 0 1-.166-.386c0-.21.095-.356.284-.437.077-.033.219-.063.425-.09.177-.024.288-.047.331-.07.044-.021.066-.066.066-.132 0-.147-.098-.22-.293-.22-.103 0-.179.018-.226.055-.048.037-.08.101-.095.192h-.421a.545.545 0 0 1 .21-.422c.127-.095.308-.142.543-.142.26 0 .451.053.575.158.058.05.096.102.115.159a.911.911 0 0 1 .028.267l-.004.339-.003.347c0 .122.003.212.01.269.008.057.024.119.048.187Zm-.491-.81a.866.866 0 0 1-.314.084.756.756 0 0 0-.23.063c-.068.036-.1.097-.1.183 0 .07.021.124.065.163a.27.27 0 0 0 .185.058.403.403 0 0 0 .318-.138.27.27 0 0 0 .06-.1.466.466 0 0 0 .016-.136v-.178ZM13.716 6.541v.433a.995.995 0 0 0-.174-.02.39.39 0 0 0-.366.209c-.044.078-.066.208-.066.39v.696h-.446v-1.68h.424v.306c.121-.227.297-.341.528-.341a.75.75 0 0 1 .1.007ZM14.373 6v.401h-.446V6h.446Zm0 .572V8.25h-.446V6.572h.446ZM15.534 6.523a.79.79 0 0 1 .598.243c.153.16.23.373.23.64 0 .276-.082.495-.245.66a.807.807 0 0 1-.597.229c-.261 0-.47-.085-.624-.256-.148-.162-.222-.372-.222-.63 0-.254.072-.461.215-.62.16-.177.374-.266.645-.266Zm-.023.348a.331.331 0 0 0-.282.143.656.656 0 0 0-.106.395c0 .173.035.306.105.398a.35.35 0 0 0 .293.14.333.333 0 0 0 .276-.127c.077-.095.115-.232.115-.411 0-.168-.034-.299-.101-.392a.349.349 0 0 0-.3-.146Z" fill="#fff"/></g><defs><clipPath id="a"><path fill="#fff" d="M0 0h30v30H0z"/></clipPath></defs></svg>
